icons/house.svg

<svg xmlns="http://www.w3.org/2000/svg" width="24" height="24" viewBox="0 0 24 24">
  <path d="M12.570012,2.17826795 L12.6689647,2.25670585 L22.6689647,11.2567059 C23.0794748,11.6261649 23.1127532,12.2584547 22.7432941,12.6689647 C22.4022551,13.0478971 21.8372654,13.1054013 21.4294847,12.8214163 L21.3310353,12.7432941 L19.9999914,11.545 L20,20 C20,21.1045695 19.1045695,22 18,22 L15,22 C14.4477153,22 14,21.5522847 14,21 L14,17 C14,16.4477153 13.5522847,16 13,16 L11,16 C10.4477153,16 10,16.4477153 10,17 L10,21 C10,21.5522847 9.55228475,22 9,22 L6,22 C4.8954305,22 4,21.1045695 4,20 L3.9999914,11.544 L2.66896473,12.7432941 C2.2900324,13.0843332 1.72212793,13.0822114 1.34641068,12.7569898 L1.25670585,12.6689647 C0.915666759,12.2900324 0.917788553,11.7221279 1.24301021,11.3464107 L1.33103527,11.2567059 L11.3310353,2.25670585 C11.6796482,1.94295425 12.193808,1.91680829 12.570012,2.17826795 Z"/>
</svg>

<svg xmlns="http://www.w3.org/2000/svg" viewBox="0 0 24 24">
  <path d="m12.57 2.18.1.08 10 9a1 1 0 0 1-1.24 1.56l-.1-.08-1.33-1.2V20a2 2 0 0 1-2 2h-3a1 1 0 0 1-1-1v-4a1 1 0 0 0-1-1h-2a1 1 0 0 0-1 1v4a1 1 0 0 1-1 1H6a2 2 0 0 1-2-2v-8.46l-1.33 1.2a1 1 0 0 1-1.32.02l-.1-.1a1 1 0 0 1 0-1.31l.08-.1 10-9a1 1 0 0 1 1.24-.07z"/>
</svg>
